resources/svg/dribbble.svg

<svg xmlns="http://www.w3.org/2000/svg" viewBox="0 0 24 24" fill="currentColor"><path fill="currentColor" d="M11.4318367,8.63510204 C9.66122449,5.48571429 7.76571429,2.91918367 7.62857143,2.73061224 C4.77061224,4.08 2.63755102,6.71265306 1.97142857,9.88653061 C2.24081633,9.89142857 6.51183673,9.94285714 11.4318367,8.63510204 Z M12.7102041,12.0783673 C12.844898,12.0367347 12.9795918,11.995102 13.1142857,11.9559184 C12.8571429,11.3730612 12.5755102,10.7902041 12.2816327,10.2146939 C7.00408163,11.7942857 1.93959184,11.6791837 1.76081633,11.6742857 C1.75836735,11.7820408 1.75346939,11.8897959 1.75346939,12 C1.75346939,14.635102 2.7477551,17.037551 4.38367347,18.8522449 C4.38122449,18.8497959 4.37632653,18.842449 4.37632653,18.842449 C4.37632653,18.842449 7.18040816,13.8661224 12.7102041,12.0783673 Z M5.70122449,20.0791837 L5.70367347,20.0742857 C5.6277551,20.0155102 5.54693878,19.9591837 5.47102041,19.8979592 C5.60816327,20.0081633 5.70122449,20.0791837 5.70122449,20.0791837 Z M9.61918367,2.07622449 C9.58282004,2.08622449 9.55554731,2.09622449 9.51918367,2.10622449 C9.57372913,2.08622449 9.61009276,2.07622449 9.61918367,2.07622449 L9.61918367,2.07622449 Z M18.7689796,4.31020408 C16.9640816,2.71836735 14.5959184,1.75102041 12,1.75102041 C11.1673469,1.75102041 10.3591837,1.85387755 9.58530612,2.04 C9.74204082,2.24571429 11.6644898,4.80244898 13.4155102,8.01795918 C17.28,6.57061224 18.7420408,4.35183673 18.7689796,4.31020408 Z M12,24 C5.37306122,24 0,18.6269388 0,12 C0,5.37306122 5.37306122,0 12,0 C18.6269388,0 24,5.37306122 24,12 C24,18.6269388 18.6269388,24 12,24 Z M13.7436735,13.677551 C7.72897959,15.7738776 5.74285714,19.9885714 5.70367347,20.0742857 C7.44244898,21.4310204 9.6244898,22.2465306 12,22.2465306 C13.4204082,22.2465306 14.7722449,21.957551 16.0016327,21.4359184 C15.8497959,20.5371429 15.2546939,17.397551 13.8122449,13.6530612 C13.7877551,13.6628571 13.7657143,13.6677551 13.7436735,13.677551 Z M14.2040816,9.54612245 C14.4440816,10.0359184 14.6718367,10.5306122 14.884898,11.0326531 C14.9608163,11.2089796 15.0342857,11.3853061 15.1053061,11.5616327 C18.6440816,11.1159184 22.1289796,11.8726531 22.2440816,11.8971429 C22.2195918,9.46530612 21.3502041,7.23673469 19.9126531,5.49061224 C19.8930612,5.52 18.2497959,7.8955102 14.2040816,9.54612245 Z M15.7322449,13.1804082 C17.0791837,16.8783673 17.6228571,19.8881633 17.7257143,20.5004082 C20.0277551,18.9477551 21.6612245,16.4840816 22.1167347,13.6261224 C21.9134694,13.56 19.0457143,12.6489796 15.7322449,13.1804082 Z"/></svg>

<svg viewBox="0 0 24 24"><path fill="currentColor" d="M11.432 8.635c-1.77-3.15-3.666-5.716-3.803-5.904A10.263 10.263 0 0 0 1.97 9.887c.27.004 4.54.056 9.46-1.252zm1.278 3.443c.135-.041.27-.083.404-.122a34.204 34.204 0 0 0-.832-1.741c-5.278 1.58-10.342 1.464-10.521 1.46c-.003.107-.008.215-.008.325c0 2.635.995 5.038 2.63 6.852l-.007-.01s2.804-4.976 8.334-6.764zM5.701 20.08l.003-.005c-.076-.058-.157-.115-.233-.176c.137.11.23.181.23.181zM9.62 2.076c-.036.01-.063.02-.1.03c.055-.02.091-.03.1-.03zm9.15 2.234A10.198 10.198 0 0 0 12 1.751c-.833 0-1.64.103-2.415.289c.157.206 2.08 2.762 3.83 5.978c3.865-1.447 5.327-3.666 5.354-3.708zM12 24C5.373 24 0 18.627 0 12S5.373 0 12 0s12 5.373 12 12s-5.373 12-12 12zm1.744-10.322c-6.015 2.096-8.001 6.31-8.04 6.396A10.2 10.2 0 0 0 12 22.247c1.42 0 2.772-.29 4.002-.811c-.152-.899-.747-4.038-2.19-7.783c-.024.01-.046.015-.068.025zm.46-4.132a30.12 30.12 0 0 1 .901 2.016c3.54-.446 7.024.31 7.14.335a10.206 10.206 0 0 0-2.332-6.406c-.02.029-1.663 2.405-5.709 4.055zm1.528 3.634c1.347 3.698 1.89 6.708 1.994 7.32a10.242 10.242 0 0 0 4.39-6.874c-.203-.066-3.07-.977-6.384-.446z"/></svg>
